mobile/apps/auth/assets/custom-icons/icons/instant_gaming.svg

<svg width="500" height="500" viewBox="0 0 500 500" fill="none" xmlns="http://www.w3.org/2000/svg">
<path d="M42.3044 77.0441C33.8578 77.0441 25.6439 72.6653 21.1175 64.8302C14.3699 53.1508 18.3751 38.2158 30.0626 31.4721L78.9366 3.27575C90.6254 -3.46792 105.571 0.534679 112.319 12.2141C119.066 23.8936 115.062 38.8286 103.374 45.5723L54.5009 73.7686C50.7944 75.9145 46.5873 77.0444 42.3044 77.0441Z" fill="url(#paint0_linear_154_309)"/>
<path d="M408.844 235.902L66.7177 433.284V348.692L335.121 193.755L286.49 165.698L30.0615 313.446C22.5003 317.808 17.8424 325.869 17.8424 334.593V475.58C17.8433 479.868 18.973 484.079 21.118 487.792C23.2629 491.504 26.3475 494.586 30.0615 496.728C33.7768 498.873 37.9911 500.001 42.2807 500C46.5703 500 50.7844 498.872 54.4999 496.728L469.94 257.051C477.501 252.689 482.159 244.627 482.159 235.902C482.159 227.178 477.501 219.117 469.94 214.756L348.167 144.501C347.907 144.344 347.643 144.192 347.377 144.046L225.564 73.7685C218.003 69.4069 208.689 69.4069 201.127 73.7685L30.0629 172.459C18.3741 179.203 14.3702 194.136 21.1178 205.817C25.6442 213.651 33.8581 218.031 42.3046 218.031C46.587 218.03 50.7935 216.901 54.4999 214.756L213.344 123.114L408.844 235.904V235.902Z" fill="url(#paint1_linear_154_309)"/>
<path d="M408.844 235.902L66.7177 433.284V348.692L82.1938 339.759L54.4972 299.366L30.0615 313.446C22.5003 317.808 17.8424 325.869 17.8424 334.593V475.58C17.8433 479.868 18.973 484.079 21.118 487.792C23.2629 491.504 26.3475 494.586 30.0615 496.728C33.7768 498.873 37.9911 500.001 42.2807 500C46.5703 500 50.7844 498.872 54.4999 496.728L469.94 257.051C477.501 252.689 482.159 244.627 482.159 235.902C482.159 227.178 477.501 219.117 469.94 214.756L348.167 144.501C347.907 144.344 347.643 144.192 347.377 144.046L225.564 73.7685C218.003 69.4069 208.689 69.4069 201.127 73.7685L30.0629 172.459C18.3741 179.203 14.3702 194.136 21.1178 205.817C25.6442 213.651 33.8581 218.031 42.3046 218.031C46.587 218.03 50.7935 216.901 54.4999 214.756L213.344 123.114L408.844 235.902Z" fill="url(#paint2_linear_154_309)"/>
<defs>
<linearGradient id="paint0_linear_154_309" x1="31.2204" y1="111.73" x2="108.384" y2="0.000287497" gradientUnits="userSpaceOnUse">
<stop offset="0.26" stop-color="#FF670D"/>
<stop offset="1" stop-color="#FF5317"/>
</linearGradient>
<linearGradient id="paint1_linear_154_309" x1="86.5912" y1="285.221" x2="187.325" y2="109.662" gradientUnits="userSpaceOnUse">
<stop stop-color="#FF7207"/>
<stop offset="1" stop-color="#FF7208" stop-opacity="0"/>
</linearGradient>
<linearGradient id="paint2_linear_154_309" x1="35.1941" y1="500" x2="482.158" y2="227.227" gradientUnits="userSpaceOnUse">
<stop stop-color="#FF8000"/>
<stop offset="1" stop-color="#FF4020"/>
</linearGradient>
</defs>
</svg>

<svg xmlns="http://www.w3.org/2000/svg" fill="none" viewBox="0 0 500 500"><path fill="url(#a)" d="M42.304 77.044c-8.446 0-16.66-4.379-21.187-12.214-6.747-11.68-2.742-26.614 8.946-33.358L78.937 3.276c11.688-6.744 26.634-2.741 33.382 8.938 6.747 11.68 2.743 26.615-8.945 33.358L54.501 73.77a24.339 24.339 0 0 1-12.197 3.275Z"/><path fill="url(#b)" d="M408.844 235.902 66.718 433.284v-84.592L335.12 193.755l-48.631-28.057L30.062 313.446a24.415 24.415 0 0 0-12.22 21.147V475.58a24.421 24.421 0 0 0 12.22 21.148 24.447 24.447 0 0 0 24.438 0l415.44-239.677a24.417 24.417 0 0 0 12.219-21.149 24.412 24.412 0 0 0-12.219-21.146l-121.773-70.255c-.26-.157-.524-.309-.79-.455L225.564 73.769a24.455 24.455 0 0 0-24.437 0l-171.064 98.69c-11.689 6.744-15.693 21.677-8.945 33.358 4.526 7.834 12.74 12.214 21.187 12.214a24.358 24.358 0 0 0 12.195-3.275l158.844-91.642 195.5 112.79v-.002Z"/><path fill="url(#c)" d="M408.844 235.902 66.718 433.284v-84.592l15.476-8.933-27.697-40.393-24.436 14.08a24.415 24.415 0 0 0-12.219 21.147V475.58a24.421 24.421 0 0 0 12.22 21.148 24.447 24.447 0 0 0 24.438 0l415.44-239.677a24.417 24.417 0 0 0 12.219-21.149 24.412 24.412 0 0 0-12.219-21.146l-121.773-70.255c-.26-.157-.524-.309-.79-.455L225.564 73.769a24.455 24.455 0 0 0-24.437 0l-171.064 98.69c-11.689 6.744-15.693 21.677-8.945 33.358 4.526 7.834 12.74 12.214 21.187 12.214a24.358 24.358 0 0 0 12.195-3.275l158.844-91.642 195.5 112.788Z"/><defs><linearGradient id="a" x1="31.22" x2="108.384" y1="111.73" y2="0" gradientUnits="userSpaceOnUse"><stop offset=".26" stop-color="#FF670D"/><stop offset="1" stop-color="#FF5317"/></linearGradient><linearGradient id="b" x1="86.591" x2="187.325" y1="285.221" y2="109.662" gradientUnits="userSpaceOnUse"><stop stop-color="#FF7207"/><stop offset="1" stop-color="#FF7208" stop-opacity="0"/></linearGradient><linearGradient id="c" x1="35.194" x2="482.158" y1="500" y2="227.227" gradientUnits="userSpaceOnUse"><stop stop-color="#FF8000"/><stop offset="1" stop-color="#FF4020"/></linearGradient></defs></svg>
